X:64
T:The Bloody Drunken Peeler
B:Terry "Cuz" Teahan "Sliabh Luachra on Parade" 1980
Z:Patrick Cavanagh
M:2/4
L:1/8
R:Polka
K:D
| A2 AB | Ad dc | BB c/B/A | Be Bc/B/ | 
A2 AB | Ad dc | Be Bc | d2 d2 :| 
| f2 fe | fd dc | BB c/B/A | Be Bc | 
f2 fe | fd dc | Be Bc | d2 d2 :|| 

